packages/ffe-icons/icons/filled/sm/share_reviews.svg

<svg xmlns="http://www.w3.org/2000/svg" height="20" viewBox="0 -960 960 960" width="20"><path d="M576.212-370.001q25.942 0 43.864-18.135 17.923-18.135 17.923-44.076 0-25.942-18.073-43.864-18.072-17.923-43.926-17.923-12.997 0-24.387 5.307-11.389 5.308-20.613 13.923l-134.385-66.514q.384-2.178.884-5.255t.5-5.462q0-2.385-.5-5.654t-.884-5.448l134.001-66.129q9.223 8.615 20.805 13.923 11.582 5.307 24.579 5.307 25.854 0 43.926-18.135 18.073-18.135 18.073-44.076 0-25.942-18.135-43.864-18.135-17.923-44.076-17.923-25.942 0-43.864 18.13-17.923 18.13-17.923 44.064 0 2.19.5 5.267.5 3.077.884 5.64l-134.001 66.129q-9.223-8.615-20.805-13.923-11.582-5.307-24.579-5.307-25.854 0-43.926 18.135-18.073 18.135-18.073 44.076 0 25.942 18.073 43.864 18.072 17.923 43.926 17.923 12.997 0 24.579-5.5t20.805-14.115l134.001 66.514q-.384 2.563-.884 5.64-.5 3.077-.5 5.267 0 25.934 18.135 44.064t44.076 18.13Zm-334.673 110-70.959 70.958q-15.194 15.194-34.886 6.942-19.693-8.252-19.693-29.747v-567.843q0-27.008 18.65-45.658 18.65-18.65 45.658-18.65h599.382q27.008 0 45.658 18.65 18.65 18.65 18.65 45.658v455.382q0 27.008-18.65 45.658-18.65 18.65-45.658 18.65H241.539Z"/></svg>

<svg xmlns="http://www.w3.org/2000/svg" height="20" viewBox="0 -960 960 960" width="20"><path d="M576.21-370q25.94 0 43.87-18.14Q638-406.27 638-432.21t-18.07-43.87Q601.85-494 576-494q-13 0-24.39 5.31T531-474.77l-134.39-66.51q.39-2.18.89-5.26.5-3.08.5-5.46t-.5-5.65q-.5-3.27-.89-5.45l134.01-66.13q9.22 8.61 20.8 13.92Q563-610 576-610q25.85 0 43.93-18.14Q638-646.27 638-672.21t-18.14-43.87Q601.73-734 575.79-734t-43.87 18.13Q514-697.74 514-671.8q0 2.18.5 5.26.5 3.08.89 5.64l-134.01 66.13q-9.22-8.61-20.8-13.92Q349-614 336-614q-25.85 0-43.93 18.14Q274-577.73 274-551.79t18.07 43.87Q310.15-490 336-490q13 0 24.58-5.5 11.58-5.5 20.8-14.12l134.01 66.52q-.39 2.56-.89 5.64-.5 3.08-.5 5.26 0 25.94 18.14 44.07Q550.27-370 576.21-370ZM241.54-260l-70.96 70.96q-15.19 15.19-34.89 6.94Q116-190.35 116-211.85v-567.84q0-27.01 18.65-45.66Q153.3-844 180.31-844h599.38q27.01 0 45.66 18.65Q844-806.7 844-779.69v455.38q0 27.01-18.65 45.66Q806.7-260 779.69-260H241.54Z"/></svg>
